X: 57
T:Lilting Banshee
R:Jig
M:6/8
L:1/8
K:D
D|"Am"EAA EAA|"G"BAB G2A|"Em"Bee "G"edB|"Em"dBA "G"GED|
"Am"EAA EAA|"G"BAB G2A|"Em"Bee edB|"G"BAG "Am (F)"A2:|
|:d|"Am"eaa age|"G"dBA G2A|"Em"Bee edB|"G"def gfg|
"Am"eaa age|"G"dBA G2A|"Em"Bee edB|"G"BAG "Am"A2:|
